X:1
T:The British Grenadiers
M:4/4
C:
S:Bacon (CJS MSS)
N:
A:Longborough
O:English
R:Reel
%P:A(AB$^2$)$^2$(AC$^2$)$^2$
P:A(AB2)2(AC2)2
K:G
I:speed 400
P:A
D2 | G2 D2 G2 A2 | B2 cB A2 Bc | d2 G2 G2 B2 | AGFE  D4 |\
     G2 D2 G2 A2 | B2 AB c2 Bc | d2 G2 BAGF  | G4    G2 ||\
P:B
Bc | d3 e  d2 c2 | B3 c  d2 d2 | e2 e2 dcBA  | G4 F2 D2 |\
     G2 D2 G2 A2 | B2 AB c2 Bc | d2 G2 BAGF  | G4    G2 ||\
P:C
Bc | d3 e  d2 c2 | B3 c  d2 d2 | e4    e4    | d2 c2 B2 A2 | G4 G4 | F4 D4 |\
     G2 D2 G2 A2 | B2 AB c2 Bc | d2 G2 BAGF  | G4    G2 ||
